assets/icons/traton/document_tool.svg

<svg xmlns="http://www.w3.org/2000/svg" width="32" height="32" viewBox="0 0 32 32" fill="none">
<path fill-rule="evenodd" clip-rule="evenodd" d="M26.0112 11.5859V30H18.0063V28H24.0093V13H14.9985V4H7.99072V14.0068H5.98877V2H16.4146L26.0112 11.5859ZM17.0015 11H22.5933L17.0015 5.41406V11Z" fill="#001D21" />
<path fill-rule="evenodd" clip-rule="evenodd" d="M11.6655 15.7754C13.3849 14.1358 16.1964 13.2279 18.6558 14.7617L19.7231 15.4277L15.2573 19.8936L16.0815 20.7178L20.5386 16.2627L21.2046 17.3301C22.7381 19.7893 21.8304 22.601 20.1909 24.3203C18.7198 25.8629 16.3534 26.8229 14.1616 25.7764L9.77197 29.9971H8.25537L7.49854 29.208L5.98877 27.6982V26.1943L10.2095 21.8047C9.16265 19.6128 10.1228 17.2466 11.6655 15.7754ZM16.2231 15.999C15.1103 15.894 13.9477 16.3622 13.0454 17.2227C11.7541 18.4543 11.3672 20.101 12.27 21.377L12.7466 22.0518L12.1743 22.6484L8.06982 26.9141L8.94775 27.8291L9.04248 27.9238L13.3179 23.8115L13.9146 23.2393L14.5894 23.7158C15.8652 24.6183 17.5121 24.2316 18.7437 22.9404C19.6049 22.0372 20.0717 20.8726 19.9653 19.7588L17.4663 22.1621L17.4292 22.2002L17.4282 22.1992L16.7456 22.8564H15.3921L13.1177 20.583V19.2295L16.2231 15.999Z" fill="#001D21" />
</svg>

<svg xmlns="http://www.w3.org/2000/svg" fill="none" viewBox="0 0 32 32"><path fill="#001d21" fill-rule="evenodd" d="M26 11.6V30h-8v-2h6V13h-9V4H8v10H6V2h10.4zm-9-.6h5.6L17 5.4z" clip-rule="evenodd"/><path fill="#001d21" fill-rule="evenodd" d="M11.7 15.8c1.7-1.7 4.5-2.6 7-1l1 .6-4.4 4.5.8.8 4.4-4.4.7 1c1.5 2.5.6 5.3-1 7-1.5 1.6-3.8 2.5-6 1.5L9.8 30H8.3l-.8-.8L6 27.7v-1.5l4.2-4.4c-1-2.2 0-4.6 1.5-6m4.5.2q-1.7 0-3.2 1.2-2 2.1-.7 4.2l.4.7-.5.5L8 27l.8 1H9l4.3-4 .6-.7.7.5c1.3 1 3 .5 4.1-.8q1.4-1.4 1.3-3.1l-2.5 2.4-.8.7h-1.3L13 20.6v-1.4z" clip-rule="evenodd"/></svg>
